svgs/thin/game-board-simple.svg

<svg xmlns="http://www.w3.org/2000/svg" viewBox="0 0 448 512"><!--! Font Awesome Pro 6.6.0 by @fontawesome - https://fontawesome.com License - https://fontawesome.com/license (Commercial License) Copyright 2024 Fonticons, Inc. --><path d="M64 48C37.5 48 16 69.5 16 96l0 320c0 26.5 21.5 48 48 48l320 0c26.5 0 48-21.5 48-48l0-320c0-26.5-21.5-48-48-48L64 48zM0 96C0 60.7 28.7 32 64 32l320 0c35.3 0 64 28.7 64 64l0 320c0 35.3-28.7 64-64 64L64 480c-35.3 0-64-28.7-64-64L0 96zm72 16l0 128c0 4.4 3.6 8 8 8l136 0 0-136c0-4.4-3.6-8-8-8L80 104c-4.4 0-8 3.6-8 8zm160 0l0 136 136 0c13.3 0 24 10.7 24 24l0 128c0 13.3-10.7 24-24 24l-128 0c-13.3 0-24-10.7-24-24l0-136L80 264c-13.3 0-24-10.7-24-24l0-128c0-13.3 10.7-24 24-24l128 0c13.3 0 24 10.7 24 24zm0 288c0 4.4 3.6 8 8 8l128 0c4.4 0 8-3.6 8-8l0-128c0-4.4-3.6-8-8-8l-136 0 0 136z"/></svg>

<svg xmlns="http://www.w3.org/2000/svg" viewBox="0 0 448 512"><!--! Font Awesome Pro 6.4.2 by @fontawesome - https://fontawesome.com License - https://fontawesome.com/license (Commercial License) Copyright 2023 Fonticons, Inc. --><path d="M64 48C37.5 48 16 69.5 16 96V416c0 26.5 21.5 48 48 48H384c26.5 0 48-21.5 48-48V96c0-26.5-21.5-48-48-48H64zM0 96C0 60.7 28.7 32 64 32H384c35.3 0 64 28.7 64 64V416c0 35.3-28.7 64-64 64H64c-35.3 0-64-28.7-64-64V96zm72 16V240c0 4.4 3.6 8 8 8H216V112c0-4.4-3.6-8-8-8H80c-4.4 0-8 3.6-8 8zm160 0V248H368c13.3 0 24 10.7 24 24V400c0 13.3-10.7 24-24 24H240c-13.3 0-24-10.7-24-24V264H80c-13.3 0-24-10.7-24-24V112c0-13.3 10.7-24 24-24H208c13.3 0 24 10.7 24 24zm0 288c0 4.4 3.6 8 8 8H368c4.4 0 8-3.6 8-8V272c0-4.4-3.6-8-8-8H232V400z"/></svg>
